X: 39682
T: Tenpenny Bit, The
R: jig
M: 6/8
K: Adorian
|:eAA eAA|BAB GBd|eAA eAA|def gfg|
eAA eAA|BAB {F}G2B|def gdB|BAG A2d:|
|:eaa aga|bab ged|eaa aga|bgf g2 d|
eaa aga|{a}b3 ged|def gdB|BAG A2d:|

